X: 178
T:PIQUEE DOUBLE
M:4/4
L:1/8
Q:1/4=100
Z:Yves BELOTTEAU
K:G
|:DE/2F/2GF GAGF|EF/2G/2AB cBA2:|
B2G2 B2A2|AB/2c/2dc BABG|B2G2 B2A2|AB/2c/2dc BABG|G2|
W:
W: From "Falaleiro" http://home.t-online.de/home/pheld/homepage.htm
